X: 10053
T: LADY CATHCART'S STRATHSPEY
R: strathspey
B: K\"ohler's Violin Repository, v.1, 1885 p.5 #3
F: http://www.archive.org/details/klersviolinrepos01edin
Z: 2011 John Chambers <jc:trillian.mit.edu>
M: C
L: 1/8
K: Bb
F |\
B>c(B>F) G<BB>d | c>d(c>B) A<cc>d | B>c(B>F) G<BB>g | f<d(c>f) d<BB :|
e |\
d>e(fd) g>a(bg) | f>g(f<d) f<d{d}c>B | d>e(fd) g>a(bg) | f>d (e/d/c/B/) G<BBe |
d>e(fd) g>a(bg) | f>g(f<d) f<dc>d | e>f(e<c) d<BG>g | f>d(c>f) d<BB |]

%%sep 2 1 500

